X: 21402
M: 6/8
L: 1/8
K: D
V: 1 name="2"
f |\
efg A2g | b2a f2a | gfe bag | f3 fga |\
bag g3 | agf f3 | efg ABc | d3 "^D.C."d2 |][K:=c]
K:G
d/c/ |\


